X:110
T:The Ebbing Tide
M:6/8
L:1/8
Q:120
C:Joe Liddy
K:D
EFD E3 |GAB ABd |Bee ded |BAF DEF |
EFD E3 |GAB def |edB dAF |EFD E3 ||
Bee efe |dBd def |edB BAF |AFE DFA |
Bcd efe |dBA Bcd |edB dAF |EFD E3 |
Bee edB |def afd |edB Bcd |BAF EFA |
Bcd efg |edB def |edB dAF |EFD E3 ||
%  ABC2Win Version 2.1 24/06/2002
